Pods/ProtonCore-UIFoundations/libraries/UIFoundations/Sources/Assets.xcassets/Images/IconSet/ic-file-arrow-out.imageset/ic-file-arrow-out.svg

<svg width="24" height="24" viewBox="0 0 24 24" fill="none" xmlns="http://www.w3.org/2000/svg">
<path fill-rule="evenodd" clip-rule="evenodd" d="M6.75 3C5.50736 3 4.5 4.00736 4.5 5.25V18.75C4.5 19.9926 5.50736 21 6.75 21H18V22.5H6.75C4.67893 22.5 3 20.8211 3 18.75V5.25C3 3.17893 4.67893 1.5 6.75 1.5H13.7574C14.7519 1.5 15.7057 1.89509 16.409 2.59835L19.9017 6.09099C20.6049 6.79425 21 7.74808 21 8.74264V12H19.5V9H15.75C14.5074 9 13.5 7.99264 13.5 6.75V3H6.75ZM18.841 7.15165C18.9481 7.25877 19.0433 7.37557 19.1257 7.5H15.75C15.3358 7.5 15 7.16421 15 6.75V3.37426C15.1244 3.4567 15.2412 3.55189 15.3483 3.65901L18.841 7.15165ZM19.8397 13.7197C20.1326 13.4268 20.6075 13.4268 20.9004 13.7197L23.6882 16.5075C24.0983 16.9176 24.0983 17.5824 23.6882 17.9925L20.9004 20.7803C20.6075 21.0732 20.1326 21.0732 19.8397 20.7803C19.5468 20.4874 19.5468 20.0126 19.8397 19.7197L21.5594 18H15.12C14.7058 18 14.37 17.6642 14.37 17.25C14.37 16.8358 14.7058 16.5 15.12 16.5H21.5594L19.8397 14.7803C19.5468 14.4874 19.5468 14.0126 19.8397 13.7197Z" fill="#0C0C14"/>
</svg>

<svg xmlns="http://www.w3.org/2000/svg" width="24" height="24" viewBox="0 0 24 24">
  <g class="ic-file-arrow-out">
    <path fill-rule="evenodd" d="M6.75 3A2.25 2.25 0 0 0 4.5 5.25v13.5A2.25 2.25 0 0 0 6.75 21H18v1.5H6.75A3.75 3.75 0 0 1 3 18.75V5.25A3.75 3.75 0 0 1 6.75 1.5h7.007a3.75 3.75 0 0 1 2.652 1.098l3.493 3.493A3.75 3.75 0 0 1 21 8.743V12h-1.5V9h-3.75a2.25 2.25 0 0 1-2.25-2.25V3H6.75Zm12.091 4.152c.107.107.202.224.285.348H15.75a.75.75 0 0 1-.75-.75V3.374c.124.083.241.178.348.285l3.493 3.493Zm.999 6.568a.75.75 0 0 1 1.06 0l2.788 2.787c.41.41.41 1.075 0 1.485L20.9 20.78a.75.75 0 0 1-1.06-1.06L21.56 18h-6.44a.75.75 0 0 1 0-1.5h6.44l-1.72-1.72a.75.75 0 0 1 0-1.06Z" class="Icon"/>
  </g>
</svg>
